X:1
T:[ID 2-55a]
T:[ID 2-55a]
T:Bezeichnung standardisiert: Englischer [mit Trio] Engl. [mit Trio] In dieser Quelle auch als: Engl. oder demi Chaine
T:Urheber unbekannt Datum in der hier transkribierten schriftlichen Quelle: 1776 - 1791
C:Urheber unbekannt
C:Datum in der hier transkribierten schriftlichen Quelle: 1776 - 1791
L:1/8
M:2/4
K:G
V:1 treble 
V:1
 d3 _f | (3e_fg c2 | (3^fga df | g/f/g/a/ g2 | d3 _f | (3e_fg c2 | (3^fga df | g2 G2 :: d3 e | %9
 cB/A/ BG | d3 e | cB/A/ B2 | d3 _f | (3e_fg c2 | (3^fga df | g2 G2 :| %16
[M:2/4]"^Trio" !fermata!G3 A | BGGB | cAFD | G/F/G/A/ G2 | G3 A | BGGB | cAFD | G4 :: D2 d2 | %25
 dc/B/ c2 | D2 c2 | cB/A/ B2 | G3 A | BGGB | cAFD | G2 G,2 :| %32

